X: 8640
T: Croppies' March, The
R: polka
M: 2/4
K: Gmajor
|:E|D>E DB,|DE GA|Bd AB/A/|GE EG/E/|
D>E DB,|DE GA|Bd AB/A/|G2 G:|
A|Bd dB|ce ec|Bd AB/A/|GE ED|
B/c/d dB|c/d/e e>f|g/f/e fd|e2 ef|
ge fd|e/f/e/d/ BA|Bd/B/ AB/A/|GE EG|
D>E DB,|DE GA|Bd AB/A/|G2 G||

